.local/share/icons/Gruvbox-Plus-Dark/actions/16/tool-spray.svg

<svg xmlns="http://www.w3.org/2000/svg" width="16" height="16" viewBox="0 0 16 16">
 <defs>
  <style id="current-color-scheme" type="text/css">
   .ColorScheme-Text { color:#ebdbb2; } .ColorScheme-Highlight { color:#458588; }
  </style>
 </defs>
 <path style="fill:currentColor" class="ColorScheme-Text" d="M 8.8105469 1.0683594 A 2.000019 2.000019 0 0 0 6.8496094 2.7402344 A 2.000019 2.000019 0 0 0 8.4941406 5.0410156 A 2.000019 2.000019 0 0 0 10.794922 3.3945312 A 2.000019 2.000019 0 0 0 9.1503906 1.09375 A 2.000019 2.000019 0 0 0 8.8105469 1.0683594 z M 4.5859375 2.4140625 A 1.0000095 1.0000095 0 0 0 3.5859375 3.4140625 A 1.0000095 1.0000095 0 0 0 4.5859375 4.4140625 A 1.0000095 1.0000095 0 0 0 5.5859375 3.4140625 A 1.0000095 1.0000095 0 0 0 4.5859375 2.4140625 z M 12.904297 3.3867188 A 1.0000095 1.0000095 0 0 0 11.904297 4.3867188 A 1.0000095 1.0000095 0 0 0 12.904297 5.3867188 A 1.0000095 1.0000095 0 0 0 13.904297 4.3867188 A 1.0000095 1.0000095 0 0 0 12.904297 3.3867188 z M 3.0585938 5.1816406 A 2.000019 2.000019 0 0 0 1.0976562 6.8535156 A 2.000019 2.000019 0 0 0 2.7441406 9.1542969 A 2.000019 2.000019 0 0 0 5.0449219 7.5097656 A 2.000019 2.000019 0 0 0 3.3984375 5.2089844 A 2.000019 2.000019 0 0 0 3.0585938 5.1816406 z M 8.2441406 6.6074219 A 1.0000095 1.0000095 0 0 0 7.2441406 7.6074219 A 1.0000095 1.0000095 0 0 0 8.2441406 8.6074219 A 1.0000095 1.0000095 0 0 0 9.2441406 7.6074219 A 1.0000095 1.0000095 0 0 0 8.2441406 6.6074219 z M 12.923828 6.8183594 A 2.000019 2.000019 0 0 0 10.962891 8.4902344 A 2.000019 2.000019 0 0 0 12.607422 10.791016 A 2.000019 2.000019 0 0 0 14.910156 9.1464844 A 2.000019 2.000019 0 0 0 13.263672 6.8457031 A 2.000019 2.000019 0 0 0 12.923828 6.8183594 z M 2.9960938 10.400391 A 1.0000095 1.0000095 0 0 0 1.9960938 11.400391 A 1.0000095 1.0000095 0 0 0 2.9960938 12.400391 A 1.0000095 1.0000095 0 0 0 3.9960938 11.400391 A 1.0000095 1.0000095 0 0 0 2.9960938 10.400391 z M 7.171875 10.931641 A 2.000019 2.000019 0 0 0 5.2128906 12.605469 A 2.000019 2.000019 0 0 0 6.8574219 14.90625 A 2.000019 2.000019 0 0 0 9.1582031 13.259766 A 2.000019 2.000019 0 0 0 7.5136719 10.958984 A 2.000019 2.000019 0 0 0 7.171875 10.931641 z M 11.761719 12 A 1.0000095 1.0000095 0 0 0 10.761719 13 A 1.0000095 1.0000095 0 0 0 11.761719 14 A 1.0000095 1.0000095 0 0 0 12.761719 13 A 1.0000095 1.0000095 0 0 0 11.761719 12 z"/>
</svg>

<svg width="16" height="16" version="1.1" xmlns="http://www.w3.org/2000/svg">
  <defs>
    <style id="current-color-scheme" type="text/css">.ColorScheme-Text { color:#ebdbb2; } .ColorScheme-Highlight { color:#458588; }</style>
  </defs>
  <path class="ColorScheme-Text" d="m8.811 1c-1.105 0-2 0.8954-2 2s0.8954 2 2 2 2-0.8954 2-2-0.8954-2-2-2zm-4.225 1.414c-0.5523 0-1 0.4477-1 1s0.4477 1 1 1 1-0.4477 1-1-0.4477-1-1-1zm8.318 0.9727c-0.5523 0-1 0.4477-1 1s0.4477 1 1 1 1-0.4477 1-1-0.4477-1-1-1zm-9.904 1.613c-1.105 0-2 0.8954-2 2s0.8954 2 2 2 2-0.8954 2-2-0.8954-2-2-2zm5.244 1.607c-0.5523 0-1 0.4477-1 1s0.4477 1 1 1 1-0.4477 1-1-0.4477-1-1-1zm4.756 0.3926c-1.105 0-2 0.8954-2 2 0 1.105 0.8954 2 2 2s2-0.8954 2-2c0-1.105-0.8954-2-2-2zm-10 3.4c-0.5523 0-1 0.4477-1 1s0.4477 1 1 1 1-0.4477 1-1-0.4477-1-1-1zm4.004 0.5996c-1.105 0-2 0.8954-2 2 0 1.105 0.8954 2 2 2s2-0.8954 2-2c0-1.105-0.8954-2-2-2zm4.762 1c-0.5523 0-1 0.4477-1 1s0.4477 1 1 1 1-0.4477 1-1-0.4477-1-1-1z" fill="currentColor"/>
</svg>
